X: 1
T: Chatanooga Choo-choon, The
M: 4/4
L: 1/8
R: reel
K: Gmaj
(3d^c=c |: Bc ^cd2d ef | (3gag gd ed2^d | ed BA2B c^c | dB GE cA FE |
 Bc ^cd2d ef | (3gag gd ed d^d | ed BA2B c^c |1 dB A2 G2 (3d^c=c :|2 dB A2 G2 (3Bc^c ||
|: dB GD cA FD | GA Bd2^c (3ded | dB GD cA FD | G2 D2 B2 d2 |
(3gag fg ec2e | (3fgf ef dB GA | (3^A=A^A A=A GA (3^A=A^A |
[1 ^Ac A=A2B c^c :|2 ^Ac A=A2d (3d^c=c | dB GE cA (3E=F^F | G4 g4 ||
